X: 23149
T: Le 24 Juin
R: reel
M: 4/4
K: Gmajor
|:B2GB ABBA|GABG dcBA|GBdB GBcB|ABcA E3c-|c2dc BcdB|
[1 ABAG F3E|DEFG ABcd|efge dcBA:|
[2 ABAG FAdf|fedB BAFD|G4 zDEF||
K:Gm
|:G^FGA BABc|d3d dcBA|G^FGA BABd|d^cde d3d-|dccd c3c-|
cBBc B2BB|1 A2^GA BAGA|d2c2 B2A2:|2 A2^GA dcBA|G6A2||

